X: 13236
T: Fisherman's Island, The
R: reel
M: 4/4
K: Dmajor
|:D2FA d3A|BAGB AFFF|GEED EFGA|Bded cAA2|
f2df edce|d2cd BAGF|EFGA Bded|cAGE EDD2:|
|:fddA AFFD|DFAd f2ef|geee gfec|dfed cAGE|
DFFA Adcd|Bddg fedB|Adfa gfec|dBAG FDD2:|

